X:1
T:Title
%%score { 1 | 2 }
L:1/8
M:4/4
K:F
V:1 treble nm="Grand Piano"
V:2 bass 
V:1
 z4 z2[Q:1/4=110] F>G | A2 [GB]2 [Ac]2 [Bd]>[Bd] | [Ac]2 [GB]2 [FA]2 [CF]2 | %3
 [EG]<[EG] [EG]>[EG] [GB]2 [FA]>[EG] | A6 F>G | A2 [GB]2 [Ac]2 [Bd]>[Bd] | %6
 [Ac]2 [GB]2 [FA]2 [CF]2 | [EG]<[EG] [EG]>[EG] [GB]2 [FA]>[EG] |[M:3/4] F6 |[M:1/4] c>c | %10
[M:4/4] [Fd]2 [Fd]>[Fd] [Fd]2 [FB][Fd] | c2 cd c4 | A<A A>A [EG]2 [DF]>[EG] | A6 cc | d2 dd f2 ed | %15
 d2 cc c2 A2 | [EG]<[EG] [Ec]>[EB] [FA]2 G>G |[M:3/4] F6 |] %18
V:2
 z4 z2 [F,A,]>[F,B,F] | [F,CF]2 [F,C]2 [F,F]2 [F,F]>[F,F] | [F,F]2 [F,C]2 [F,C]2 [F,A,]2 | %3
 [C,C]<[C,C] [C,C]>[C,C] [C,C]2 [C,C]>[C,C] | [F,CF]6 [F,A,]>[F,B,F] | %5
 [F,CF]2 [F,C]2 [F,F]2 [F,F]>[F,F] | [F,F]2 [F,C]2 [F,C]2 [F,A,]2 | %7
 [C,C]<[C,C] [C,C]>[C,C] [C,C]2 [C,C]>[B,,B,] |[M:3/4] [F,A,]6 |[M:1/4] [F,A,F]>[F,A,F] | %10
[M:4/4] [B,,B,]2 [B,,B,]>[B,,B,] [B,,B,]2 [D,B,][B,,B,] | [F,A,F]2 [F,A,F][F,B,F] [F,A,F]4 | %12
 [F,CF]<[F,CF] [F,CF]>[F,CF] [C,C]2 [C,C]>[C,C] | [F,CF]6 [F,A,F][F,A,F] | %14
 [B,F]2 [B,F][B,F] [B,DF]2 [B,CF][B,F] | [F,B,F]2 [F,A,F][F,A,F] [F,A,F]2 [F,CF]2 | %16
 [C,C]<[C,C] [C,C]>[C,C] [C,C]2 [C,B,C]>[C,B,C] |[M:3/4] [F,A,C]6 |] %18

